X: 178
T: SLIDE: Dan O'Keeffe's
C: C: Trad.; S: Emma O'Leary
C: Set Leaders: Anton, Sophie
Z: Anton Zille ed.; Smiley at The Session
N: https://thesession.org/members/26966/sets/94458
R: Slide
M: 12/8
L: 1/8
Q: 3/8=130
K: Edor
|:B2e e2f e2d B2A|~B2d dBA ~B2d dBA|
B2e e2f e2d B2A|1 def a2f e3 e2d:|2 def a2f e2e efa||
|:b3 bba b2a f2e|d2f afe def afa|
bbb b2a b2a f2e|1 def a2f e2e efa:|2 def a2f g2f e2d||

